pwa/public/bubbles3.svg

<svg width="68" height="557" viewBox="0 0 68 557" fill="none" xmlns="http://www.w3.org/2000/svg">
<path d="M34.7012 236.858L34.701 236.869V236.875C34.5115 245.325 28.0079 253.517 17.8448 253.694C9.44817 253.839 1.25978 247.147 1.00551 237.043L1.00551 237.042C0.752878 227.083 9.29303 220.04 17.7362 219.992C26.1803 219.943 34.9159 226.99 34.7012 236.858ZM11.0814 243.137C12.9926 244.538 15.4933 245.308 18.0178 245.276L18.0191 245.282C24.0153 245.197 28.1971 241.352 28.3128 237.021C28.3843 234.45 26.9712 232.332 25.0133 230.903C23.0596 229.477 20.4796 228.662 17.9498 228.671C15.4245 228.68 12.8678 229.505 10.9386 230.942C9.0028 232.385 7.627 234.511 7.70856 237.088L7.70864 237.09C7.79535 239.642 9.15829 241.727 11.0814 243.137Z" stroke="white" stroke-width="2"/>
<path d="M46.0079 369.562L46.0076 369.573V369.579C45.8181 378.029 39.3145 386.221 29.1514 386.398C20.7548 386.543 12.5664 379.851 12.3122 369.747L12.3121 369.746C12.0595 359.787 20.5997 352.744 29.0429 352.696C37.4869 352.647 46.2225 359.695 46.0079 369.562ZM22.388 375.841C24.2992 377.242 26.8 378.012 29.3244 377.981L29.3258 377.986C35.322 377.901 39.5038 374.056 39.6195 369.725C39.691 367.154 38.2779 365.037 36.3199 363.607C34.3663 362.181 31.7863 361.366 29.2564 361.375C26.7311 361.385 24.1744 362.209 22.2452 363.647C20.3094 365.089 18.9336 367.215 19.0152 369.792L19.0153 369.794C19.102 372.346 20.4649 374.431 22.388 375.841Z" stroke="white" stroke-width="2"/>
<path d="M50.2794 18.4476C44.7109 18.3516 41.1643 13.8562 41.063 9.24549C40.9471 3.81353 45.7387 -0.0239019 50.347 0.000112074C54.9552 0.0241261 59.6454 3.86636 59.5055 9.33675C59.3656 14.8552 54.8876 18.5245 50.2794 18.4428V18.4476Z" fill="white"/>
<path d="M41.9482 557C36.3798 556.904 32.8331 552.409 32.7318 547.798C32.616 542.366 37.4076 538.528 42.0158 538.552C46.624 538.576 51.3142 542.419 51.1743 547.889C51.0344 553.408 46.5564 557.077 41.9482 556.995V557Z" fill="white"/>
<path d="M35.4043 411.799C31.9914 411.74 29.8177 408.985 29.7556 406.159C29.6846 402.83 32.6214 400.478 35.4457 400.493C38.2701 400.507 41.1448 402.862 41.059 406.215C40.9733 409.597 38.2287 411.846 35.4043 411.796V411.799Z" fill="white"/>
<circle cx="29.7543" cy="309.444" r="29.7543" fill="white" fill-opacity="0.48"/>
<circle cx="50.2848" cy="225.835" r="17.555" fill="white" fill-opacity="0.48"/>
<circle cx="47.3093" cy="365.085" r="17.555" fill="white" fill-opacity="0.48"/>
<circle cx="14.8772" cy="182.096" r="12.4968" fill="white" fill-opacity="0.48"/>
<circle cx="29.4567" cy="114.554" r="8.03365" fill="white" fill-opacity="0.48"/>
<circle cx="37.1928" cy="90.1555" r="8.03365" fill="white" fill-opacity="0.48"/>
<circle cx="19.3403" cy="216.314" r="8.03365" fill="white" fill-opacity="0.48"/>
<circle cx="19.3403" cy="390.674" r="8.03365" fill="white" fill-opacity="0.48"/>
<circle cx="49.9872" cy="140.44" r="12.4968" fill="white" fill-opacity="0.48"/>
<circle cx="35.1101" cy="460.596" r="12.4968" fill="white" fill-opacity="0.48"/>
<path d="M47.7887 263.028C39.31 263.072 30.6949 270.135 30.95 280.201C31.2051 290.346 39.4375 297.094 47.9162 296.945C58.1452 296.766 64.6801 288.503 64.8605 280.026C65.0759 270.039 56.2674 262.984 47.7887 263.028ZM47.9074 290.915C43.1052 290.998 38.4436 287.168 38.2985 281.413C38.1534 275.707 43.0436 271.715 47.8458 271.693C52.6525 271.667 57.6351 275.667 57.5119 281.326C57.4108 286.127 53.7036 290.814 47.903 290.915H47.9074Z" fill="white"/>
<path d="M28.5032 182.096C24.0407 182.124 19.5065 186.585 19.6407 192.942C19.775 199.35 24.1078 203.612 28.5703 203.518C33.954 203.404 37.3934 198.186 37.4883 192.832C37.6018 186.524 32.9657 182.069 28.5032 182.096ZM28.5657 199.709C26.0382 199.761 23.5847 197.343 23.5084 193.708C23.432 190.104 26.0058 187.583 28.5333 187.569C31.0631 187.553 33.6855 190.079 33.6207 193.653C33.5675 196.685 31.6163 199.645 28.5634 199.709H28.5657Z" fill="white"/>
</svg>

<svg xmlns="http://www.w3.org/2000/svg" width="68" height="557" fill="none" xmlns:v="https://vecta.io/nano"><style><![CDATA[.B{fill-opacity:.48}]]></style><path d="M34.701 236.858v.011.006c-.19 8.45-6.693 16.642-16.856 16.819-8.397.145-16.585-6.547-16.839-16.651v-.001c-.253-9.959 8.288-17.002 16.731-17.05s17.18 6.998 16.965 16.866zm-23.62 6.279c1.911 1.401 4.412 2.171 6.936 2.139l.001.006c5.996-.085 10.178-3.93 10.294-8.261.072-2.571-1.342-4.689-3.299-6.118s-4.534-2.241-7.064-2.232-5.082.834-7.011 2.271c-1.936 1.443-3.312 3.569-3.23 6.146v.002c.087 2.552 1.45 4.637 3.373 6.047zm34.927 126.425v.011.006c-.189 8.45-6.693 16.642-16.856 16.819-8.397.145-16.585-6.547-16.839-16.651v-.001c-.253-9.959 8.288-17.002 16.731-17.05s17.18 6.999 16.965 16.866zm-23.62 6.279c1.911 1.401 4.412 2.171 6.936 2.14l.001.005c5.996-.085 10.178-3.93 10.294-8.261.072-2.571-1.342-4.688-3.3-6.118s-4.534-2.241-7.063-2.232-5.082.834-7.011 2.272c-1.936 1.442-3.312 3.568-3.23 6.145v.002c.087 2.552 1.45 4.637 3.373 6.047z" stroke="#fff" stroke-width="2"/><g fill="#fff"><path d="M50.279 18.448c-5.568-.096-9.115-4.591-9.216-9.202-.116-5.432 4.676-9.27 9.284-9.246s9.298 3.866 9.158 9.337c-.14 5.518-4.618 9.188-9.226 9.106v.005zM41.948 557c-5.568-.096-9.115-4.591-9.216-9.202-.116-5.432 4.676-9.27 9.284-9.246s9.298 3.867 9.159 9.337c-.14 5.519-4.618 9.188-9.226 9.106V557zm-6.544-145.201c-3.413-.059-5.587-2.814-5.649-5.64-.071-3.329 2.866-5.681 5.69-5.666s5.699 2.369 5.613 5.722c-.086 3.382-2.83 5.631-5.655 5.581v.003z"/><circle cx="29.754" cy="309.444" r="29.754" class="B"/><circle cx="50.285" cy="225.835" r="17.555" class="B"/><circle cx="47.309" cy="365.085" r="17.555" class="B"/><circle cx="14.877" cy="182.096" r="12.497" class="B"/><circle cx="29.457" cy="114.554" r="8.034" class="B"/><circle cx="37.193" cy="90.156" r="8.034" class="B"/><circle cx="19.34" cy="216.314" r="8.034" class="B"/><circle cx="19.34" cy="390.674" r="8.034" class="B"/><circle cx="49.987" cy="140.44" r="12.497" class="B"/><circle cx="35.11" cy="460.596" r="12.497" class="B"/><path d="M47.789 263.028c-8.479.044-17.094 7.107-16.839 17.173.255 10.145 8.488 16.893 16.966 16.744 10.229-.179 16.764-8.442 16.944-16.919.215-9.987-8.593-17.042-17.072-16.998zm.119 27.887c-4.802.083-9.464-3.747-9.609-9.502-.145-5.706 4.745-9.698 9.547-9.72s9.789 3.974 9.666 9.633c-.101 4.801-3.808 9.488-9.609 9.589h.004zM28.503 182.096c-4.462.028-8.997 4.489-8.862 10.846.134 6.408 4.467 10.67 8.93 10.576 5.384-.114 8.823-5.332 8.918-10.686.113-6.308-4.523-10.763-8.985-10.736zm.063 17.613c-2.527.052-4.981-2.366-5.057-6.001-.076-3.604 2.497-6.125 5.025-6.139s5.152 2.51 5.087 6.084c-.053 3.032-2.004 5.992-5.057 6.056h.002z"/></g></svg>
